X: 26816
T: Milliner's Daughter, The
R: reel
M: 4/4
K: Dmajor
|:D2FD A,CEC|D2Bd cAGE|D2FD A,CEF|GECE ~G2FE|
D2FD A,CEC|D2dB cAGE|D2FD A,CEF|GECD EDD2:|
|:Addd Addd|Accc Accc|Addd Addd|A2AB cAG2|
Addd fded|cdBc A2Bd|efdB cABG|AABd cAG2:|

